X:192
T:Amazing Grace
%%stretchlast false
M:3/4
L:1/4
K:F clef=C1
"^I"[F,FAc] [F,CAf]2 | [F,Fca]/ "^I¹"[A,Fcf]/ "^I²"[CFca]2 | "^V7"[CEBg] "^vi"[DFAf]2 | "^IV"[B,FBd] "^I"[F,FAc]2 | [F,FAc] [F,CAf]2 | [F,Fca]/ "^I¹"[A,Fcf]/ "^I²"[CFca]2 | "^V7³"[B,Ecg] "^I¹"[A,Fcc']3 | [A,Fcc']2 | "^I"[F,Fca] [FAcc']3/2 [Fca]/ | [FAcc']/ [Fca]/ "^I¹"[A,Fcf]2 | [A,Fc] "^IV"[B,FBd]3/2 "^I¹"[A,Fcf]/ | "^IV"[B,DBf]/ [B,FBd]/ "^I"[F,FAc]2 | "^I¹"[A,Fc] "^vi"[DFAf]2 | "^I²"[CFca]/ [CAcf]/ [Ccfa]2 | "^V7"[CBeg] "^I"[FAcf]3 | [FAcf]2 |]
